**kern	**kern	**dynam
*part1	*part1	*part1
*staff2	*staff1	*
*I"Piano	*	*
*clefF4	*clefG2	*
*k[b-e-a-d-]	*k[b-e-a-d-]	*
=1	=1	=1
2.D- 2.A-	(4a- 4ff 4aa-	.
.	4ee- 4gg-X	.
.	4dd-) 4ff	.
=	=	=
!	!LO:TX:a:i:t=dim.	!
2.DD- 2.D-	(4a- 4ff	.
.	4g-X 4ee-	.
.	4f) 4dd-	.
=	=	=
2EE- 2E-	(4e- 4cc	.
.	4d- 4b-	.
([4E- 4A-	4c) [4a-	.
=	=	=
*	*^	*
2.E-]) 2.B-	4a-]	2.d-	.
.	4gn	.	.
.	4b-	.	.
=	=	=	=
!	!	!	!LO:DY:a
2.AA- 2.A-	2.a-	(4c 4a-	p
.	.	4e- 4g-X	.
.	.	4d-) 4f	.
=	=	=	=
2.AA- 2.A-	2.a-	(4c 4a-	.
.	.	4e- 4g-X	.
.	.	4d-) 4f	.
*	*v	*v	*
=||	=||	=||
*M2/2	*M2/2	*
*met(c|)	*met(c|)	*
*	*^	*
2AA- 2A-	1a-	(4c 4a-	>
.	.	2e- 2g-X	.
2DD- 2D-	.	.	.
.	.	4d-) 4f	.
*	*v	*v	*
=	=	=
1AAA-; 1AA-	1c; 1e- 1a-	]
==	==	==
*-	*-	*-
!!!system-decoration: {(s1,s2)}
